X:3242
T:Kerry Polka #2
O:england
M:2/4
L:1/8
Q:300
C:Trad
R:polka
K:E Dor
B2 B>A|FA DA|B2 BA|B/2c/2d ed|
B2 B>A|FA DE|F/2E/2D AF|E2 E2:|
Be e>f|ed BA|Be e>f|ed Bc|
d>e dB|AF DD/2E/2|F/2E/2D AF|E2 E2:|


